X: 6
T: The Hag At The Spinning Wheel
R: jig
M: 6/8
L: 1/8
K: Gmaj
D|:G3 B2G|BcA B2D|Gc/A/G cAG|F3 AFD|
Gc/A/G B2G|BcA B2c|df/g/d cAF|1AGF G2D:|2AGF G2c||
|:BAG AFD|D3 AFD|D3 AFD|EFG ABc|
BAG AFD| D3 AFD|df/g/d cAF|1AGF G2c:|2AGF G2D||
|:GB/c/d gba|gdB ecA|dBG cAG|F2G AFD|
GB/c/d gba|gdB ecA|fed cAF|1AGF G2D:|2AGF G2A||
|:c/B/AG Afd|Bfd Afd|Bfd AFD|EFG ABc|
BAG AFD|D3 AFD|df/g/d cAF|1AGF G2A:|2AGF G2D||


Tune 2254	Setting 15625

